X:10
T:Arhelzli-Juiz. 1985  Bb  ABCD
T:Sepp Herger  (* 16.1.1962)
T:Dirigenten-Notiz  Edi Gasser
C:Unterwalden (CH)
%%partsbox
P:ABCD
M:2/4
R:Naturjodel
L:1/8
K:Bb
[P:A] "langsam" DE | F3E | D2FB/c/ | d3c | B2Ff | e3d | c2Ff | d3c | B2DE | 
F3E | D2FB/c/ | d3c | B2Ff | e3d | cf dc | (B4 | B) || 
L:1/4
M:2/4
[P:B] "zügig" F/f/ | ed | c F/f/ | d c | B F/B/ | c>B | AG | FB | dF/f/ | ed | 
cF/f/ | dc | BF/B/ | c>=B | cd | (B2 | B)F/f/ | ed | c F/f/ | dc | BF/B/ | 
c>B | AG | FB | dF/f/ | ed | cF/f/ | dc | BF/B/ | c>=B | cd | (B2 | B) ||  
L:1/8
M:2/4
[P:C]"langsam" DE | F3E | D2FB/c/ | d3c | B2Ff | e3d | cf dc | (B4 | B2)z2 ||
[P:D] "fröhlich" F>F | DF fd | B2F>F | EF fd | c2F>F | EF fd | cf dc | B>A Bc | 
d2F>F | DF fd | B2F>F | EF fd | c2F>F | EF fd | cf dc | (B4 | B2)F>F | 
DF fd | B2F>F | EF fd | c2F>F | EF fd | cf dc | B>A Bc | d2F>F | 
DF fd | B2F>F | EF fd | c2F>F | EF fd | cf dc | (B4 | B2) |] 
W:
%W:Reihenfolge: A-B-C-D
W:notiert Edi Gasser
W:UJV-Naturjodelsammlung: Code-Nr: 22-02
W:http://www.naturjodler.ch/code 22.htm  (with AUDIO)
%May 20, 2018

